com.fiatuconnect/capabilities/charging.svg

<svg height="960" viewBox="0 0 960 960" width="960" xmlns="http://www.w3.org/2000/svg"><g fill="#000" fill-rule="nonzero"><path d="m557 21c26.509668 0 48 21.490332 48 48v32h12c34.992762 0 63.426255 28.083566 63.991426 62.941643l.008574 1.058357v711c0 35.346224-28.653776 64-64 64h-274c-35.346224 0-64-28.653776-64-64v-711c0-35.346224 28.653776-64 64-64h12v-32c0-26.2445713 21.062674-47.5696914 47.206232-48zm-214 120c-13.254834 0-24 10.745166-24 24v711c0 13.254834 10.745166 24 24 24h274c13.254834 0 24-10.745166 24-24v-711c0-13.254834-10.745166-24-24-24zm214-80h-154c-4.418278 0-8 3.581722-8 8v32h170v-32c0-4.3349143-3.447838-7.8645429-7.750821-7.9961932z"/><path d="m601.653105 466.529041c-3.002335-4.993785-8.276706-7.998177-14.119086-7.998177h-88.366004l20.651192-177.908691c.284004-2.435994-.486865-4.912586-2.150321-6.739581-1.622883-1.826995-3.976064-2.882592-6.450962-2.882592h-.365148c-3.205195 0-6.085813 1.745795-7.586981 4.547187l-146.302943 273.643218c-2.758902 5.156185-2.596613 11.205568.405721 16.239954 3.002334 4.993786 8.276706 7.998177 14.119086 7.998177l88.366004.0406-20.651192 177.908691c-.284005 2.435994.486865 4.912586 2.109749 6.739581 1.622883 1.826995 3.976064 2.882592 6.450961 2.882592h.365149c3.205195 0 6.085813-1.745795 7.58698-4.547187l146.302944-273.643218c2.758901-5.196785 2.637185-11.246168-.365149-16.280554z"/></g></svg>

<?xml version="1.0" encoding="UTF-8"?>
<svg width="960px" height="960px" viewBox="0 0 960 960" version="1.1" xmlns="http://www.w3.org/2000/svg" xmlns:xlink="http://www.w3.org/1999/xlink">
    <title>se.cohen.renaultze/capabilities/charging</title>
    <g id="se.cohen.renaultze/capabilities/charging" stroke="none" stroke-width="1" fill="none" fill-rule="evenodd">
        <path d="M557,21 C583.509668,21 605,42.490332 605,69 L605,69 L605,101 L617,101 C651.992762,101 680.426255,129.083566 680.991426,163.941643 L680.991426,163.941643 L681,165 L681,876 C681,911.346224 652.346224,940 617,940 L617,940 L343,940 C307.653776,940 279,911.346224 279,876 L279,876 L279,165 C279,129.653776 307.653776,101 343,101 L343,101 L355,101 L355,69 C355,42.7554287 376.062674,21.4303086 402.206232,21 L402.206232,21 Z M343,141 C329.745166,141 319,151.745166 319,165 L319,165 L319,876 C319,889.254834 329.745166,900 343,900 L343,900 L617,900 C630.254834,900 641,889.254834 641,876 L641,876 L641,165 C641,151.745166 630.254834,141 617,141 L617,141 Z M557,61 L403,61 C398.581722,61 395,64.581722 395,69 L395,69 L395,101 L565,101 L565,69 C565,64.6650857 561.552162,61.1354571 557.249179,61.0038068 L557,61 Z" id="Combined-Shape" fill="#000000" fill-rule="nonzero"></path>
        <path d="M601.653105,466.529041 C598.65077,461.535256 593.376399,458.530864 587.534019,458.530864 L499.168015,458.530864 L519.819207,280.622173 C520.103211,278.186179 519.332342,275.709587 517.668886,273.882592 C516.046003,272.055597 513.692822,271 511.217924,271 L510.852776,271 C507.647581,271 504.766963,272.745795 503.265795,275.547187 L356.962852,549.190405 C354.20395,554.34659 354.366239,560.395973 357.368573,565.430359 C360.370907,570.424145 365.645279,573.428536 371.487659,573.428536 L459.853663,573.469136 L439.202471,751.377827 C438.918466,753.813821 439.689336,756.290413 441.31222,758.117408 C442.935103,759.944403 445.288284,761 447.763181,761 L448.12833,761 C451.333525,761 454.214143,759.254205 455.71531,756.452813 L602.018254,482.809595 C604.777155,477.61281 604.655439,471.563427 601.653105,466.529041 Z" id="Path" fill="#000000" fill-rule="nonzero"></path>
    </g>
</svg>
